!!!SOCIAL_FUNCTION:	moccasin game songs
!!!PDT:	1909
!!!OTL: No_172.krn
!!!REG: Great_Lakes
!!!LANG: Non-Tone
!!!LING_GROUP: Algonquin
**kern
*staff1
=1-
*clefF4
*k[b-e-a-d-g-c-]
*M2/4
8.B-\L
16d-\Jk
12B-\L
12A-\
12G-\J
=2
8.B-\L
16d-\Jk
12B-\L
12A-\
12d-\J
=3
2B-\
=4
4E-\
4E-\
=5
8.B-\L
16B-\Jk
12B-\L
12A-\
12G-\J
=6
12A-\L
12G-\
12F\J
12G-\L
12A-\
12G-\J
=7
2G-\
=8
16E-/LK
8.BB-/J
4BB-/
==
*-
